packages/tokens/icons/user2/size32Px.svg

<svg viewBox="0 0 32 33" fill="none" xmlns="http://www.w3.org/2000/svg" width="1em" height="1em"><path d="M12.672 21.3166L12.2651 21.6072L12.672 21.3166ZM14.182 24.2909C14.3425 24.5156 14.6548 24.5676 14.8795 24.4071C15.1042 24.2466 15.1562 23.9343 14.9957 23.7096L14.182 24.2909ZM13.4422 27.4613L13.0064 27.7064L13.4422 27.4613ZM10.6935 22.5744L11.1293 22.3293L10.6935 22.5744ZM16.9286 29.5003L16.9286 30.0003L16.9286 30.0003L16.9286 29.5003ZM18.5 29.5003L18.5 29.0003L18.5 29.0003L18.5 29.5003ZM22.5 25.5003L23 25.5003L22.5 25.5003ZM11.1916 20.9489L11.4153 21.3961L11.1916 20.9489ZM12.2651 21.6072L14.182 24.2909L14.9957 23.7096L13.0788 21.026L12.2651 21.6072ZM13.878 27.2161L11.1293 22.3293L10.2577 22.8196L13.0064 27.7064L13.878 27.2161ZM16.9286 30.0003L18.5 30.0003L18.5 29.0003L16.9286 29.0003L16.9286 30.0003ZM23 25.5003L23 24.5002L22 24.5002L22 25.5003L23 25.5003ZM18.5 30.0003C20.9853 30.0003 23 27.9855 23 25.5003L22 25.5003C22 27.4333 20.433 29.0003 18.5 29.0003L18.5 30.0003ZM13.0064 27.7064C13.8034 29.1234 15.3028 30.0003 16.9286 30.0003L16.9286 29.0003C15.6641 29.0003 14.4979 28.3183 13.878 27.2161L13.0064 27.7064ZM11.4153 21.3961C11.7119 21.2478 12.0723 21.3373 12.2651 21.6072L13.0788 21.026C12.6 20.3556 11.7047 20.1333 10.968 20.5018L11.4153 21.3961ZM10.968 20.5018C10.1125 20.9296 9.78881 21.9859 10.2577 22.8196L11.1293 22.3293C10.9405 21.9937 11.0708 21.5684 11.4153 21.3961L10.968 20.5018Z" fill="currentColor"/><path d="M20 23.5C20 23.7761 20.2239 24 20.5 24C20.7761 24 21 23.7761 21 23.5H20ZM22 21V25H23V21H22ZM21 23.5V21H20V23.5H21ZM21.5 20.5C21.7761 20.5 22 20.7239 22 21H23C23 20.1716 22.3284 19.5 21.5 19.5V20.5ZM21.5 19.5C20.6716 19.5 20 20.1716 20 21H21C21 20.7239 21.2239 20.5 21.5 20.5V19.5Z" fill="currentColor"/><path d="M20.5 23.5V19.5C20.5 18.9477 20.0523 18.5 19.5 18.5V18.5C18.9477 18.5 18.5 18.9477 18.5 19.5V22" stroke="currentColor" stroke-linecap="round"/><path d="M18.5 22V19C18.5 18.4477 18.0523 18 17.5 18V18C16.9477 18 16.5 18.4477 16.5 19V21.5" stroke="currentColor" stroke-linecap="round"/><path d="M16.5 20.5V15.4556C16.5 14.9278 16.0722 14.5 15.5444 14.5V14.5C15.0167 14.5 14.5889 14.9278 14.5889 15.4556L14.5889 24" stroke="currentColor" stroke-linecap="round"/><path d="M19.5 13.5V12.5C19.5 11.3954 18.6046 10.5 17.5 10.5H14.5C13.3954 10.5 12.5 11.3954 12.5 12.5V13.5" stroke="currentColor" stroke-linecap="round" stroke-linejoin="round"/><path d="M16 8.5C16.8284 8.5 17.5 7.82843 17.5 7C17.5 6.17157 16.8284 5.5 16 5.5C15.1716 5.5 14.5 6.17157 14.5 7C14.5 7.82843 15.1716 8.5 16 8.5Z" stroke="currentColor" stroke-linecap="round" stroke-linejoin="round"/><path d="M24.5 14.5C26.7091 14.5 28.5 12.7091 28.5 10.5C28.5 8.29086 26.7091 6.5 24.5 6.5" stroke="currentColor" stroke-linecap="round"/><path d="M20.5 16.0005C22.3217 14.6322 23.5 12.4537 23.5 10C23.5 5.85786 20.1421 2.5 16 2.5C11.8579 2.5 8.5 5.85786 8.5 10C8.5 12.4537 9.67833 14.6322 11.5 16.0005" stroke="currentColor" stroke-linecap="round"/><path d="M7.5 14.5C5.29086 14.5 3.5 12.7091 3.5 10.5C3.5 8.29086 5.29086 6.5 7.5 6.5" stroke="currentColor" stroke-linecap="round"/></svg>

<svg xmlns="http://www.w3.org/2000/svg" fill="none" viewBox="0 0 32 33" width="1em" height="1em"><path fill="currentColor" d="m12.672 21.317-.407.29.407-.29Zm1.51 2.974a.5.5 0 0 0 .814-.581l-.814.58Zm-.74 3.17-.436.245.436-.245Zm-2.748-4.887.435-.245-.435.245Zm6.235 6.926v.5-.5Zm1.571 0V29v.5Zm4-4h.5-.5Zm-11.308-4.55.223.447-.223-.447Zm1.073.658 1.917 2.684.814-.581-1.917-2.684-.814.581Zm1.613 5.61-2.749-4.888-.871.49 2.748 4.887.872-.49ZM16.928 30H18.5v-1h-1.571v1ZM23 25.5v-1h-1v1h1ZM18.5 30a4.5 4.5 0 0 0 4.5-4.5h-1a3.5 3.5 0 0 1-3.5 3.5v1Zm-5.494-2.294A4.5 4.5 0 0 0 16.93 30v-1a3.5 3.5 0 0 1-3.051-1.784l-.872.49Zm-1.59-6.31a.674.674 0 0 1 .85.211l.813-.581a1.674 1.674 0 0 0-2.111-.524l.447.894Zm-.448-.894a1.674 1.674 0 0 0-.71 2.318l.871-.49a.674.674 0 0 1 .286-.934l-.447-.894Z"/><path fill="currentColor" d="M20 23.5a.5.5 0 0 0 1 0h-1Zm2-2.5v4h1v-4h-1Zm-1 2.5V21h-1v2.5h1Zm.5-3a.5.5 0 0 1 .5.5h1a1.5 1.5 0 0 0-1.5-1.5v1Zm0-1A1.5 1.5 0 0 0 20 21h1a.5.5 0 0 1 .5-.5v-1Z"/><path stroke="currentColor" stroke-linecap="round" d="M20.5 23.5v-4a1 1 0 0 0-1-1v0a1 1 0 0 0-1 1V22m0 0v-3a1 1 0 0 0-1-1v0a1 1 0 0 0-1 1v2.5m0-1v-5.044a.956.956 0 0 0-.956-.956v0a.956.956 0 0 0-.955.956V24"/><path stroke="currentColor" stroke-linecap="round" stroke-linejoin="round" d="M19.5 13.5v-1a2 2 0 0 0-2-2h-3a2 2 0 0 0-2 2v1m3.5-5a1.5 1.5 0 1 0 0-3 1.5 1.5 0 0 0 0 3Z"/><path stroke="currentColor" stroke-linecap="round" d="M24.5 14.5a4 4 0 0 0 0-8"/><path stroke="currentColor" stroke-linecap="round" d="M20.5 16a7.5 7.5 0 1 0-9 0m-4-1.5a4 4 0 0 1 0-8"/></svg>
